src/img/categories/heartbeat.svg

<svg width="31" height="30" fill="none" xmlns="http://www.w3.org/2000/svg"><path d="M27.851 2.95C26.11 1.05 23.779 0 21.308 0c-2.141 0-4.172.78-5.803 2.23C13.875.78 11.844 0 9.703 0 7.232 0 4.9 1.05 3.16 2.95.468 5.9-.222 10.31 1.279 14h6.683l3.712-5.55a1 1 0 01.99-.44 1 1 0 01.8.73l2.431 8.88 2.781-4.17c.18-.28.5-.45.83-.45h5.002c.55 0 1 .45 1 1s-.45 1-1 1h-4.462l-3.712 5.55c-.19.29-.5.45-.83.45-.05 0-.11 0-.16-.01a1 1 0 01-.8-.73l-2.431-8.88-2.781 4.17c-.18.28-.5.45-.83.45H2.459l12.306 13.67c.19.21.45.33.74.33a1 1 0 00.74-.33L27.85 16.99c3.533-3.87 3.533-10.17.001-14.04z" fill="#232F3E"/></svg>

<svg width="31" height="30" viewBox="0 0 31 30" fill="none" xmlns="http://www.w3.org/2000/svg">
<path d="M27.851 2.95C26.11 1.05 23.779 0 21.308 0C19.167 0 17.136 0.78 15.505 2.23C13.875 0.78 11.844 0 9.70299 0C7.23199 0 4.89999 1.05 3.15999 2.95C0.467993 5.9 -0.222007 10.31 1.27899 14H7.96199L11.674 8.45C11.894 8.12 12.274 7.95 12.664 8.01C13.054 8.08 13.364 8.36 13.464 8.74L15.895 17.62L18.676 13.45C18.856 13.17 19.176 13 19.506 13H24.508C25.058 13 25.508 13.45 25.508 14C25.508 14.55 25.058 15 24.508 15H20.046L16.334 20.55C16.144 20.84 15.834 21 15.504 21C15.454 21 15.394 21 15.344 20.99C14.954 20.92 14.644 20.64 14.544 20.26L12.113 11.38L9.33199 15.55C9.15199 15.83 8.83199 16 8.50199 16H2.45899L14.765 29.67C14.955 29.88 15.215 30 15.505 30C15.785 30 16.055 29.88 16.245 29.67L27.85 16.99C31.383 13.12 31.383 6.82 27.851 2.95Z" fill="#232F3E"/>
</svg>
